X:2
T:?
G:Kazimodal
R:Kost ar c'hoad
C:Xorima, arrangement http://kazimodal.trad.org
P:(CD)2CE
M:12/8
K:Dm
P:C
M:12/8
Q:3/8=150
%%MIDI chordprog 105
%%MIDI bassprog 34
%%MIDI bassvol 127
%%MIDI program 3
%%MIDI gchord fzfczcfzcfzz
|: "Dm"f2 e d2 c "Am"d2 e f2 e | "Gm"f2 e d2 c "Am"d2 e e3 |\
    "Dm"f2 e d2 c "Am"d2 e f2 e | "Gm"f2 e d2 c "C"d2 e "Dm"d3 :|
P:D
|: "Dm"d3 e2 d c2 A "Em"d3 | d2 c d2 e "F"f2 f e3 |\
    "G"d3 e2 d "Am"c2 A "Bb"d3 | d2 c "C"d2 e "G"d3 "Dm"d3  :|
P:E
|: "Dm"d3 e2 d c2 A "Em"d3 | d2 c d2 e "F"f2 f e3 |\
    "G"d3 e2 d "Am"c2 A "Bb"d3 |1 d2 c "C"d2 e "G"d3 "Dm"d3 :|2 \
    d2 c "C"d2 e \
%%MIDI chordvol 0
%%MIDI bassvol 0
    "_"d3 "_"z3 ||
%%text Fin sur un silence !!! Skip the last note and chord for transitioning!!!


